X:54
T:Dan Sullivan's Favourite
R:hornpipe
D:Sean Ryan: Take the Air
Z:id:hn-hornpipe-54
M:C|
K:G
~G3A BAGF|G2 (3Bcd g2 (3Bcd|gdBd ecAG|FGAB cAdB|
(3GAG DG BAGF|G2 (3Bcd g2 (3Bcd|gdBd ecAF|1 GBAF G2 D2:|2 GBAF G2FG||
K:D
|:ABAG FAde|fedc d2cd|eA~A2 gfed|eA~A2 gfed|
ABAG FAde|fedc d2fg|(3aba (3gag (3fgf (3efe|1 dfec d2 FG:|2 (3ded (3cdc (3BcB (3ABA||

